!!!COM: des Prez, Josquin
!!!CDT: ~1450-1521/08/27
!!!OTL: Gloria  De beata virgine
!!!AGN: Mass section; Gloria
!!!SCT: NJE 13.7
!!!SCA: New Josquin Edition 13.7
!!!voices: 4
**kern	**text	**kern	**text	**kern	**text	**kern	**text
*staff4	*	*staff3	*	*staff2	*	*staff1	*
*Ivox	*	*Ivox	*	*Ivox	*	*Ivox	*
*I"Bassus	*	*I"Tenor	*	*I"Altus	*	*I"Superius	*
*I'B	*	*I'T	*	*I'A	*	*I'S	*
*>A	*	*>A	*	*>A	*	*>A	*
*clefF4	*	*clefGv2	*	*clefGv2	*	*clefG2	*
*k[]	*	*k[]	*	*k[]	*	*k[]	*
*M3/1	*	*M3/1	*	*M3/1	*	*M3/1	*
*met(O)	*	*met(O)	*	*met(O)	*	*met(O)	*
!!!OMD: Et in terra pax
!!section: Et in terra pax
=1-	=1-	=1-	=1-	=1-	=1-	=1-	=1-
0G	Et	0d	Et	0G	Et	0g	Et
[1E	in	1e	in	[1g	in	1g	in
=2	=2	=2	=2	=2	=2	=2	=2
1E]	.	2.B\	ter-	1g]	.	1g	ter-
.	.	4c\	.	.	.	.	.
0D	ter-	1d	.	0f	ter-	1.a	.
.	.	1d	-ra	.	.	.	.
.	.	.	.	.	.	4g/	-ra
.	.	.	.	.	.	4a/	.
=3	=3	=3	=3	=3	=3	=3	=3
0d	-ra	0G	pax	1.g	-ra	0b	pax
.	.	.	.	2f\	.	.	.
2.c\	pax	1A	ho-	1e	pax	1cc	ho-
4B\	.	.	.	.	.	.	.
=4	=4	=4	=4	=4	=4	=4	=4
1G	ho-	1B	.	1d	ho-	1b	-mi-
0F	-mi-	2.c\	-mi-	0f	-mi-	1.a	.
.	.	4B\	.	.	.	.	.
.	.	1A	-ni-	.	.	.	.
.	.	.	.	.	.	4g/	-ni-
.	.	.	.	.	.	4a/	.
=5	=5	=5	=5	=5	=5	=5	=5
1G	-ni-	0G	-bus	1d	-ni-	0b	-bus
1E	-bus	.	.	1e	-bus	.	.
[1F	bo-	2.c\	bo-	1A	.	2r	.
.	.	.	.	.	.	[2cc\	bo-
.	.	4B\	.	.	.	.	.
=6	=6	=6	=6	=6	=6	=6	=6
2F\]	.	2A/	.	2r	.	2cc\]	.
2G\	-ne	2G/	-ne	1d	bo-	2b\	-ne
2F\	vo-	2A/	vo-	.	.	2a/	vo-
2G\	-lun-	2E/	-lun-	2B\	.	2g/	-lun-
1D	-ta-	1F#i	-ta-	1A	.	1a	-ta-
=7	=7	=7	=7	=7	=7	=7	=7
1.d	-tis.	0.G	-tis.	1.G	-ne	1b	-tis.
.	.	.	.	.	.	1r	.
4c\	.	.	.	2.g\	vo-	.	.
4B-\	.	.	.	.	.	.	.
[1B-i	Lau-	.	.	.	.	[1dd	Lau-
.	.	.	.	4f\	.	.	.
.	.	.	.	2g\	.	.	.
=8	=8	=8	=8	=8	=8	=8	=8
1B-]	.	0.r	.	2d\	-lun-	1dd]	.
.	.	.	.	2.f\	-ta-	.	.
1F	-da-	.	.	.	.	1cc	-da-
.	.	.	.	4e\	.	.	.
.	.	.	.	1a	.	.	.
1G	-mus	.	.	.	.	1b	.
.	.	.	.	2g\	.	.	.
=9	=9	=9	=9	=9	=9	=9	=9
1D	-te,	0.r	.	2f\	-tis.	2.a/	.
.	.	.	.	1a	Lau-	.	.
.	.	.	.	.	.	4b\	.
1r	.	.	.	.	.	2cc\	.
.	.	.	.	2f\	.	1dd	.
1A	lau-	.	.	1e	.	.	.
.	.	.	.	.	.	2cc#i\	-mus
=10	=10	=10	=10	=10	=10	=10	=10
2.B-i\	-da-	1r	.	2.d\	-da-	0.dd	te,
4A\	.	.	.	4c\	.	.	.
2F\	-mus	1r	.	2A/	.	.	.
2.G\	te,	.	.	2G/	.	.	.
.	.	1d	Be-	[1B	.	.	.
4F\	.	.	.	.	.	.	.
[2D\	.	.	.	.	.	.	.
=11	=11	=11	=11	=11	=11	=11	=11
2D\]	.	1d	-ne-	2B\]	.	0.r	.
2.F\	be-	.	.	2A/	-mus	.	.
.	.	1c	.	1A	te,	.	.
4E\	.	.	.	.	.	.	.
1A	.	.	.	.	.	.	.
.	.	1B	.	1r	.	.	.
2G\	-ne-	.	.	.	.	.	.
=12	=12	=12	=12	=12	=12	=12	=12
2F\	-di-	2.A/	-di-	1r	.	0.r	.
1A	.	.	.	.	.	.	.
.	.	4B\	.	.	.	.	.
.	.	2c\	-ci-	1r	.	.	.
2F\	-ci-	1d	-mus	.	.	.	.
1E	-mus	.	.	1g	ad-	.	.
.	.	2c#i\	.	.	.	.	.
=13	=13	=13	=13	=13	=13	=13	=13
1D	te.	1d	te.	1f	.	1dd	ad-
1r	.	1r	.	2d\	o-	2b\	-o-
.	.	.	.	2.e-\	-ra-	2.cc\	-ra-
1C	Ad-	1r	.	.	.	.	.
.	.	.	.	4d\	.	4b\	.
.	.	.	.	4c\	.	4a/	.
.	.	.	.	4B-i\	.	4g/	.
=14	=14	=14	=14	=14	=14	=14	=14
1D	-o-	1d	ad-	1A	.	1f	.
1E	.	2B\	-o-	1G	-mus	1g	.
.	.	2.c\	-ra-	.	.	.	.
2.F\	-ra-	.	.	2F/	te,	[1a	.
.	.	4B\	.	.	.	.	.
.	.	4A/	.	[2f\	ad-	.	.
4E\	.	4G/	.	.	.	.	.
=15	=15	=15	=15	=15	=15	=15	=15
4D\	.	1F	.	4f\]	.	2a/]	.
4C/	.	.	.	4e\	-o-	.	.
2BB-i/	.	.	.	1d	-ra-	2.b-i\	.
1E-i	-mus	1G	.	.	.	.	.
.	.	.	.	.	.	8a/L	.
.	.	.	.	.	.	8g/J	.
.	.	.	.	2c\	-mus	1g	.
1D	te,	1A	-mus	[1d	te,	.	.
.	.	.	.	.	.	2f#i/	-mus
=16	=16	=16	=16	=16	=16	=16	=16
1r	.	0.G	te,	1d]	.	0.g	te,
1r	.	.	.	1B	.	.	.
1d	glo-	.	.	1G	glo-	.	.
=17	=17	=17	=17	=17	=17	=17	=17
0e	-ri-	0.r	.	0g	-ri-	1r	.
.	.	.	.	.	.	1r	.
1d	-fi-	.	.	1f	-fi-	1dd	glo-
=18	=18	=18	=18	=18	=18	=18	=18
1.c	-ca-	1r	.	2.e\	-ca-	0ee	-ri-
.	.	.	.	4f\	.	.	.
.	.	1r	.	2g\	.	.	.
4B\	.	.	.	2a\	.	.	.
4A\	.	.	.	.	.	.	.
1B	-mus	1g	glo-	1d	-mus	1dd	-fi-
=19	=19	=19	=19	=19	=19	=19	=19
1A	te,	0a	-ri-	0.e	te,	1.cc	-ca-
1r	.	.	.	.	.	.	.
.	.	.	.	.	.	2a/	.
1E	glo-	1g	-fi-	.	.	1b	.
=20	=20	=20	=20	=20	=20	=20	=20
2F\	-ri-	1.f	-ca-	2A/	glo-	2.a/	.
2D\	-fi-	.	.	1a	-ri-	.	.
.	.	.	.	.	.	4b\	.
2A\	-ca-	.	.	.	.	2cc\	.
2B-i\	.	2d\	.	2g\	.	1dd	.
1A	-mus	1e	-mus	1a	-fi-	.	.
.	.	.	.	.	.	2cc#i\	.
=21	=21	=21	=21	=21	=21	=21	=21
1D	te.	1d	te.	1f	-ca-	1.dd	.
0G	Gra-	1r	.	1g	.	.	.
.	.	.	.	.	.	2cc\	.
.	.	1G	Gra-	2d\	-mus	1b	-mus
.	.	.	.	2e\	.	.	.
=22	=22	=22	=22	=22	=22	=22	=22
1F	-ti-	1A	-ti-	1f	te.	1a	te.
1G	-as	1B	-as	2d\	Gra-	2r	.
.	.	.	.	2e\	-ti-	2g/	Gra-
2F\	a-	2c\	a-	2f\	-as	2a/	-ti-
[2G\	.	2B\	.	[2d\	a-	2g/	-as
=23	=23	=23	=23	=23	=23	=23	=23
2G\]	.	1A	-gi-	4d\]	.	1a	a-
.	.	.	.	4e\	.	.	.
2F\	-gi-	.	.	2f\	-gi-	.	.
2G\	-mus	1G	-mus	2d\	-mus	2b\	.
2B-i\	.	.	.	1g	ti-	2g/	-gi-
1A	ti-	1c	ti-	.	.	2a/	.
.	.	.	.	2f#i\	.	2cc\	-mus
=24	=24	=24	=24	=24	=24	=24	=24
1G	bi,	0.d	-bi	2g\	-bi,	1b	ti-
.	.	.	.	2G/	ti-	.	.
2F\	ti-	.	.	2A/	.	2a/	.
1G	.	.	.	4G/	.	2.b\	.
.	.	.	.	2B\	.	.	.
.	.	.	.	4c\	.	4g/	.
2F\	.	.	.	2A/	.	2a/	.
=25	=25	=25	=25	=25	=25	=25	=25
2G\	.	2r	.	1G	-bi	2b\	-bi
2B-i\	.	2d\	prop-	.	.	2g/	prop-
1A	bi	2e\	-ter	2.c\	prop-	2a/	-ter
.	.	2f\	.	.	.	2cc\	.
.	.	.	.	4d\	.	.	.
2r	.	2.g\	ma-	2e\	-ter	2r	.
2G\	prop-	.	.	2d\	.	2b\	ma-
.	.	4f\	.	.	.	.	.
=26	=26	=26	=26	=26	=26	=26	=26
2A\	-ter	2e\	.	2r	.	2cc\	-gnam
2B\	.	2d\	.	2G/	ma-	2dd\	.
2.c\	-ma-	2.e\	.	2.c\	.	2r	.
.	.	.	.	.	.	2g/	glo-
4B\	.	4d\	.	4d\	.	.	.
2A\	.	2c\	.	4e\	.	2a/	-ri-
.	.	.	.	4f\	.	.	.
2G\	-gnam	2B\	-gnam	2g\	-gnam	2b\	-am
=27	=27	=27	=27	=27	=27	=27	=27
2.A\	glo-	2.c\	glo-	2r	.	2r	.
.	.	.	.	2.c\	glo-	2e/	tu-
4G\	.	4B\	.	.	.	.	.
2F\	-ri-	2A/	-ri-	.	.	2f/	.
.	.	.	.	4A/	.	.	.
2E\	-am	2G/	-am	4B\	.	1g	.
.	.	.	.	4c\	.	.	.
1D	tu-	1A	tu-	2d\	-ri-	.	.
.	.	.	.	2A/	-am	2f#i/	.
=28	=28	=28	=28	=28	=28	=28	=28
0G	-am.	0.G	-am.	2B\	tu-	1g	-am.
.	.	.	.	2c\	.	.	.
.	.	.	.	1d	-am.	1r	.
1r	.	.	.	2r	.	1dd	Do-
.	.	.	.	2d\	Do-	.	.
=29	=29	=29	=29	=29	=29	=29	=29
0.r	.	0.r	.	2e\	-mi-	2cc\	-mi-
.	.	.	.	2d\	-ne	1b	ne
.	.	.	.	4e\	de-	.	.
.	.	.	.	4d\	.	.	.
.	.	.	.	1g	.	4a/	.
.	.	.	.	.	.	4g/	.
.	.	.	.	.	.	1a	.
.	.	.	.	2f\	.	.	.
=30	=30	=30	=30	=30	=30	=30	=30
0.r	.	0.r	.	2e\	.	2g/	de-
.	.	.	.	1g	.	2b\	.
.	.	.	.	.	.	2cc\	.
.	.	.	.	2f\	.	1dd	.
.	.	.	.	1e	.	.	.
.	.	.	.	.	.	2cc#i\	.
=31	=31	=31	=31	=31	=31	=31	=31
1r	.	1r	.	1d	us,	2dd\	.
.	.	.	.	.	.	2a/	.
1r	.	1r	.	1G	de-	2b-\	.
.	.	.	.	.	.	4a/	.
.	.	.	.	.	.	4g/	.
1D	Do-	1d	Do-	1A	.	1f	-us,
=32	=32	=32	=32	=32	=32	=32	=32
0E-	-mi-	2c\	-mi-	0G	-us	2r	.
.	.	1B-i	-ne	.	.	1g	de-
.	.	4A/	.	.	.	4f#i/	.
.	.	4G/	.	.	.	4e/	.
1D	-ne	1A	.	2.d\	rex	1f#i	.
.	.	.	.	4c\	.	.	.
=33	=33	=33	=33	=33	=33	=33	=33
1.E-i	de-	2G/	de-	4B-i\	.	1g	-us,
.	.	.	.	4A/	.	.	.
.	.	2B-i\	.	1G	.	.	.
.	.	2c\	.	.	.	1r	.
2D\	.	1d	.	2F/	.	.	.
1E-i	.	.	.	1G	.	1g	rex
.	.	2c\	.	.	.	.	.
=34	=34	=34	=34	=34	=34	=34	=34
1D	-us,	1d	-us,	1A	ce-	2f/	ce-
.	.	.	.	.	.	1f	-les-
1r	.	1d	rex	1B	-les-	.	.
.	.	.	.	.	.	4e/	.
.	.	.	.	.	.	4d/	.
1C	de-	1g	.	1c	-tis,	1e	.
=35	=35	=35	=35	=35	=35	=35	=35
1D	-us,	2.f\	ce-	2r	.	2d/	-tis,
.	.	.	.	2.F/	de	2.a/	de-
.	.	4e\	.	.	.	.	.
1r	.	2d\	.	.	.	.	.
.	.	.	.	4G/	.	4b\	.
.	.	2c\	.	4A/	.	2.cc\	.
.	.	.	.	4F/	.	.	.
1C	rex	1e	-les-	1c	-us,	.	.
.	.	.	.	.	.	4b\	.
.	.	.	.	.	.	4a/	.
.	.	.	.	.	.	4g/	.
=36	=36	=36	=36	=36	=36	=36	=36
1D	.	0f	.	2r	.	2b\	-us
.	.	.	.	2.F/	pa-	1a	pa-
1r	.	.	.	.	.	.	.
.	.	.	.	4G/	.	.	.
.	.	.	.	4A/	.	1g	.
.	.	.	.	4F/	.	.	.
1C	ce-	1e	.	1c	-ter,	.	.
.	.	.	.	.	.	4f/	.
.	.	.	.	.	.	4e/	.
=37	=37	=37	=37	=37	=37	=37	=37
1.D	-les-	1d	-tis,	2r	.	2.f/	-ter
.	.	.	.	1F	om-	.	.
.	.	.	.	.	.	4g/	.
.	.	1r	.	.	.	2a/	.
1.E	.	.	.	2.G/	-ni-	1g	.
.	.	1G	de-	.	.	.	.
.	.	.	.	4A/	.	.	.
.	.	.	.	4B\	.	2e/	om-
.	.	.	.	4G/	.	.	.
=38	=38	=38	=38	=38	=38	=38	=38
1D	-tis,	1A	.	2.d\	.	1f	-ni-
.	.	.	.	4c\	.	.	.
1r	.	2B\	.	2d\	.	1g	.
.	.	1.c	-us	2e\	.	.	.
1C	de-	.	.	2c\	-po-	1e	-po-
.	.	.	.	2e\	.	.	.
=39	=39	=39	=39	=39	=39	=39	=39
1.D	-us	2B\	.	1d	-tens,	1.f	-tens,
.	.	1A	pa-	.	.	.	.
.	.	.	.	1r	.	.	.
1.E	pa-	2G/	.	.	.	1g	om-
.	.	1c	-ter	1G	om-	.	.
.	.	.	.	.	.	4f/	.
.	.	.	.	.	.	4e/	.
=40	=40	=40	=40	=40	=40	=40	=40
1D	-ter	1.d	.	2A/	-ni-	2.f/	.
.	.	.	.	1f	-po-	.	.
.	.	.	.	.	.	4g/	.
1r	.	.	.	.	.	4a/	.
.	.	.	.	.	.	4b\	.
.	.	1.e	om-	2g\	.	2.cc\	.
1C	om-	.	.	2e\	.	.	.
.	.	.	.	.	.	4b\	.
.	.	.	.	2c\	.	4a/	.
.	.	.	.	.	.	4g/	.
=41	=41	=41	=41	=41	=41	=41	=41
2D\	-ni-	2d\	.	2.f\	.	2b\	.
1F	.	1c	-ni-	.	.	1a	-ni-
.	.	.	.	4e\	.	.	.
.	.	.	.	2f\	.	.	.
2G\	.	2B\	.	2.d\	.	1g	-po-
1D	-po-	1A	-po-	.	.	.	.
.	.	.	.	4c\	.	.	.
.	.	.	.	2d\	.	2f#i/	.
=42	=42	=42	=42	=42	=42	=42	=42
0.G	-tens.	0.G	-tens.	2.B\	-tens.	0g	-tens.
.	.	.	.	4A/	.	.	.
.	.	.	.	2B\	.	.	.
.	.	.	.	2G/	.	.	.
.	.	.	.	1g	Do-	1r	.
=43	=43	=43	=43	=43	=43	=43	=43
0.r	.	0.r	.	2.f\	.	0a	Do-
.	.	.	.	4e\	.	.	.
.	.	.	.	2d\	.	.	.
.	.	.	.	2c\	.	.	.
.	.	.	.	1B	-mi-	1g	-mi-
=44	=44	=44	=44	=44	=44	=44	=44
0.r	.	0.r	.	2A/	-ne	2f/	-ne
.	.	.	.	2G/	.	2.b-i\	fi-
.	.	.	.	1c	fi-	.	.
.	.	.	.	.	.	4a/	.
.	.	.	.	.	.	1a	.
.	.	.	.	1B-i	.	.	.
.	.	.	.	.	.	2g/	.
=45	=45	=45	=45	=45	=45,	=45	=45
0F	Do-	0A	Do-	2A/	-li,	1a	-li,
.	.	.	.	1f	do-	.	.
.	.	.	.	.	.	1cc	do-
.	.	.	.	2e\	-mi-	.	.
1G	-mi-	1G	-mi-	[1d	-ne	1b	-mi-
=46	=46	=46	=46	=46	=46	=46	=46
1D	-ne	1F	-ne	1d]	.	1a	-ne
0E	fi-	0G	fi-	1B	fi-	0g	fi-
.	.	.	.	1c	.	.	.
=47	=47	=47	=47	=47	=47	=47	=47
0D	-li	0.A	-li	0d	li	1f	-li
.	.	.	.	.	.	1r	.
1r	.	.	.	1a	u-	1cc	u-
=48	=48	=48	=48	=48	=48	=48	=48
0.r	.	0.r	.	2f\	-ni-	2dd\	-ni-
.	.	.	.	2.g\	-ge-	2.ee\	-ge-
.	.	.	.	4f\	.	4dd\	.
.	.	.	.	2d\	.	1dd	.
.	.	.	.	1e	-ni-	.	.
.	.	.	.	.	.	2cc#i\	-ni-
=49	=49	=49	=49	=49	=49	=49	=49
1r	.	1r	.	2d\	-te,	2.dd\	-te,
.	.	.	.	1f	u-	.	.
.	.	.	.	.	.	4cc\	.
1r	.	1r	.	.	.	2a/	u-
.	.	.	.	4e\	-ni-	2b\	-ni-
.	.	.	.	4d\	.	.	.
1A	u-	1c	u-	2e\	-ge-	2.cc\	-ge-
.	.	.	.	[2A/	.	.	.
.	.	.	.	.	.	4b\	.
=50	=50	=50	=50	=50	=50	=50	=50
2F\	-ni-	2d\	-ni-	2A/]	.	4a/	.
.	.	.	.	.	.	4g/	.
2.G\	-ge-	2.e\	-ge-	2.B\	.	1g	.
4F\	.	4d\	.	4A/	.	.	.
2D\	.	1d	.	1A	.	2f/	-ni-
1E	-ni-	.	.	.	.	1g	-te,
.	.	2c#i\	-ni-	2G/	-ni-	.	.
=51	=51	=51	=51	=51	=51	=51	=51
0D	-te	0d	-te	1A	-te,	2r	.
.	.	.	.	.	.	1f	Je-
.	.	.	.	1B	.	.	.
.	.	.	.	.	.	2g/	.
[1F	Je-	1c	Je-	1A	.	1a	-su
=52	=52	=52	=52	=52	=52	=52	=52
1F]	.	1f	-su	2r	.	1a	Chris-
.	.	.	.	2A/	Je-	.	.
1G	-su	2e\	Chris-	1B	-su	2g/	.
.	.	2d\	.	.	.	2f/	.
1A	Chris-	1c	.	1A	.	1e	.
=53	=53	=53	=53	=53	=53	=53	=53
0.D	-te.	0.d	-te.	1.a	Chris-	0d	-te.
.	.	.	.	4g\	.	.	.
.	.	.	.	4f\	.	.	.
.	.	.	.	1f	-te.	1r	.
=54	=54	=54	=54	=54	=54	=54	=54
*M6/1	*	*M6/1	*	*M6/1	*	*M6/1	*
*met(2)	*	*met(2)	*	*met(2)	*	*met(2)	*
00.r	.	00.r	.	1r	.	1a	Spi-
.	.	.	.	1d	Spi-	1b	.
.	.	.	.	1e	.	1cc	-ri-
.	.	.	.	1f	-ri-	1.dd	-tus
.	.	.	.	1.g	-tus	.	.
.	.	.	.	.	.	4cc\	.
.	.	.	.	.	.	4b\	.
.	.	.	.	.	.	[1b	et
.	.	.	.	4f\	.	.	.
.	.	.	.	4e\	.	.	.
=55	=55	=55	=55	=55	=55	=55	=55
00.r	.	00.r	.	0e	et	1b]	.
.	.	.	.	.	.	1.cc	al-
.	.	.	.	1.f	al-	.	.
.	.	.	.	.	.	4b\	.
.	.	.	.	.	.	4a/	.
.	.	.	.	.	.	0a	-me
.	.	.	.	4e\	.	.	.
.	.	.	.	4d\	.	.	.
.	.	.	.	0d	-me	.	.
.	.	.	.	.	.	[1b	or-
=56	=56	=56	=56	=56	=56	=56	=56
00.r	.	00.r	.	1.e	or-	2b\]	.
.	.	.	.	.	.	4a/	.
.	.	.	.	.	.	4g/	.
.	.	.	.	.	.	1.g	-pha-
.	.	.	.	4d\	.	.	.
.	.	.	.	4c\	.	.	.
.	.	.	.	1.c	-pha-	.	.
.	.	.	.	.	.	4f/	.
.	.	.	.	.	.	4e/	.
.	.	.	.	.	.	1.e	.
.	.	.	.	4B\	.	.	.
.	.	.	.	4A/	.	.	.
.	.	.	.	2c\	.	.	.
.	.	.	.	2d\	.	2f/	.
.	.	.	.	1B	.	1g	.
=57	=57	=57	=57	=57	=57	=57	=57
00.r	.	00.r	.	1.A	-no-	1.a	-no-
.	.	.	.	2B\	.	1g	.
.	.	.	.	2c\	.	.	.
.	.	.	.	1d	.	2f/	.
.	.	.	.	.	.	1e	-rum
.	.	.	.	2c#i\	.	.	.
.	.	.	.	1d	-rum	2.d/	pa-
.	.	.	.	.	.	4e/	.
.	.	.	.	2A/	pa-	2f/	.
.	.	.	.	2B-i\	-ra-	2g/	-ra-
=58	=58	=58	=58	=58	=58	=58	=58
00.r	.	00.r	.	2A/	-cli-	2a/	-cli-
.	.	.	.	1G	.	1b-i	.
.	.	.	.	2F/	.	2a/	.
.	.	.	.	4G/	.	2b-i\	.
.	.	.	.	4A/	.	.	.
.	.	.	.	4B-i\	.	2g/	.
.	.	.	.	4c\	.	.	.
.	.	.	.	2.d\	.	2b-i\	.
.	.	.	.	.	.	1a	.
.	.	.	.	4e\	.	.	.
.	.	.	.	2f\	.	.	.
.	.	.	.	1g	.	2g/	.
.	.	.	.	.	.	1a	.
.	.	.	.	2f#i\	.	.	.
=59	=59	=59	=59	=59	=59	=59	=59
*M3/1	*	*M3/1	*	*M3/1	*	*M3/1	*
*met(O)	*	*met(C.)	*	*met(O)	*	*met(O)	*
!!primary-mensuration: met(O)
1r	.	1.G	Do-	0g	-te.	0.g	-te.
1r	.	.	.	.	.	.	.
.	.	1c	.	.	.	.	.
1G	Do-	.	.	1r	.	.	.
.	.	2B\	.	.	.	.	.
=60	=60	=60	=60	=60	=60	=60	=60
2E\	-mi-	1c	-mi-	0.r	.	0.r	.
1F	-ne	.	.	.	.	.	.
.	.	1d	-ne	.	.	.	.
2D\	de-	.	.	.	.	.	.
2C/	-us	1e	de-	.	.	.	.
[2G\	a-	.	.	.	.	.	.
=61	=61	=61	=61	=61	=61	=61	=61
4G\]	.	1.d	-us	0.r	.	0.r	.
4F\	.	.	.	.	.	.	.
4G\	.	.	.	.	.	.	.
2D\	.	.	.	.	.	.	.
2F\	.	.	.	.	.	.	.
.	.	1c	a-	.	.	.	.
2E\	.	.	.	.	.	.	.
2A\	.	.	.	.	.	.	.
.	.	2B\	.	.	.	.	.
4#iG\	.	.	.	.	.	.	.
=62	=62	=62	=62	=62	=62	=62	=62
2A\	-gnus	1A	-gnus	0.r	.	0.r	.
2c\	.	.	.	.	.	.	.
1B	de-	1G	.	.	.	.	.
1A	-i	1c	de-	.	.	.	.
=63	=63	=63	=63	=63	=63	=63	=63
2r	.	1d	-i	0.r	.	0.r	.
1d	fi-	.	.	.	.	.	.
.	.	2r	.	.	.	.	.
2c\	-li-	1e	fi-	.	.	.	.
1B	-us	.	.	.	.	.	.
.	.	2d\	-li-	.	.	.	.
=64	=64	=64	=64	=64	=64	=64	=64
1A	.	2c\	-us	0.r	.	0.r	.
.	.	2A/	.	.	.	.	.
2r	.	1B	.	.	.	.	.
1G	pa-	.	.	.	.	.	.
.	.	1A	pa-	.	.	.	.
2F\	.	.	.	.	.	.	.
=65	=65	=65	=65	=65	=65	=65	=65
2E\	.	2G/	.	0.r	.	1r	.
2D\	.	2.B\	.	.	.	.	.
2.G\	.	.	.	.	.	1r	.
.	.	4c\	.	.	.	.	.
.	.	1d	.	.	.	.	.
4F\	.	.	.	.	.	.	.
4E\	.	.	.	.	.	1g	Pri-
4D\	.	.	.	.	.	.	.
2E\	-tris,	2c#i\	.	.	.	.	.
=66	=66	=66	=66	=66	=66	=66	=66
*	*	*M3/1	*	*	*	*	*
*	*	*met(O)	*	*	*	*	*
2r	.	1d	-tris.	1r	.	1f	-mo-
2D\	pa-	.	.	.	.	.	.
2.G\	.	1r	.	1r	.	2e/	-ge-
.	.	.	.	.	.	1d	.
4F\	.	.	.	.	.	.	.
4E\	.	1r	.	1g	Pri-	.	.
4D\	.	.	.	.	.	.	.
2E\	-tris.	.	.	.	.	2c#i/	-ni-
=67	=67	=67	=67	=67	=67	=67	=67
2r	.	0.r	.	1f	-mo-	1d	-tus
2D\	Pri-	.	.	.	.	.	.
2.G\	.	.	.	2e\	-ge-	1r	.
.	.	.	.	1d	.	.	.
4F\	.	.	.	.	.	.	.
4E\	.	.	.	.	.	1e	Ma-
4D\	.	.	.	.	.	.	.
2E\	.	.	.	2c#i\	-ni-	.	.
=68	=68	=68	=68	=68	=68	=68	=68
4D\	-mo-	0.r	.	1d	-tus	2.f/	-ri-
2d\	-ge-	.	.	.	.	.	.
4c\	.	.	.	.	.	8e/L	.
.	.	.	.	.	.	8d/J	.
4B\	.	.	.	1r	.	2d/	-e
4A\	.	.	.	.	.	.	.
2B\	-ni-	.	.	.	.	2dd\	vir-
1A	-tus	.	.	1e	Ma-	2.cc\	-gi-
.	.	.	.	.	.	4b\	.
=69	=69	=69	=69	=69	=69	=69	=69
2.d\	Ma-	0.r	.	2.f\	.	4a/	.
.	.	.	.	.	.	4g/	.
.	.	.	.	.	.	2a/	-nis
4c\	.	.	.	4e\	.	.	.
4B\	.	.	.	4d\	.	2r	.
4A\	.	.	.	4c\	.	.	.
2B\	-ri-	.	.	2d\	-ri-	2dd\	ma-
2A\	-e	.	.	2e\	.	2cc\	.
2r	.	.	.	4d\	.	4b\	.
.	.	.	.	[4c\	.	[4a/	.
=70	=70	=70	=70	=70	=70	=70	=70
1r	.	0.r	.	4c\]	.	4a/]	.
.	.	.	.	4B\	.	2g/	.
.	.	.	.	2A/	.	.	.
.	.	.	.	.	.	4f#i/	.
2.G\	vir-	.	.	2G/	-e	1g	-tris.
.	.	.	.	2B\	vir-	.	.
4F\	.	.	.	.	.	.	.
4E\	.	.	.	4c\	.	1r	.
4D\	.	.	.	2d\	.	.	.
2E\	-gi-	.	.	.	.	.	.
.	.	.	.	4c#i\	-gi-	.	.
=71	=71	=71	=71	=71	=71	=71	=71
4D\	-nis	0.r	.	2d\	-nis	0.r	.
2G\	ma-	.	.	.	.	.	.
.	.	.	.	2B\	ma-	.	.
4F\	.	.	.	.	.	.	.
4E\	.	.	.	4c\	.	.	.
4D\	.	.	.	2d\	.	.	.
2E\	.	.	.	.	.	.	.
.	.	.	.	4c#i\	.	.	.
[1D	-tris.	.	.	[1d	-tris.	.	.
=72	=72	=72	=72	=72	=72	=72	=72
1D]	.	1r	.	1d]	.	1r	.
1r	.	1r	.	1r	.	1r	.
1D	Qui	1f	Qui	1a	Qui	1a	Qui
=73	=73	=73	=73	=73	=73	=73	=73
2.A\	tol-	2e\	-tol-	1.a	tol-	2.cc\	tol-
.	.	1f	.	.	.	.	.
4G\	.	.	.	.	.	4b\	.
2A\	.	.	.	.	.	2cc\	.
2B-i\	.	2d\	.	2g\	.	1dd	.
1A	.	1e	.	1a	.	.	.
.	.	.	.	.	.	2cc#i\	.
=74	=74	=74	=74	=74	=74	=74	=74
1D	-lis	1d	-lis	2f\	-lis,	2dd\	-lis
.	.	.	.	4e\	.	1ff	pec-
.	.	.	.	4d\	.	.	.
1r	.	2d\	pec-	0a	.	.	.
.	.	2c\	.	.	.	2ee\	.
1D	pec-	1d	.	.	.	2dd\	-ca-
.	.	.	.	.	.	4cc\	.
.	.	.	.	.	.	4b\	.
=75	=75	=75	=75	=75	=75	=75	=75
2.A\	-ca-	2e\	-ca-	2r	.	2cc\	-ta
.	.	1f	.	1a	tol-	2.a/	mun-
4G\	.	.	.	.	.	.	.
2A\	.	.	.	.	.	.	.
.	.	.	.	.	.	4b\	.
2B-i\	-ta	2d\	-ta	2g\	.	1dd	.
1A	mun	1e	mun-	1a	-lis	.	.
.	.	.	.	.	.	2cc#i\	.
=76	=76	=76	=76	=76	=76	=76	=76
0D	-di,	0d	-di,	2r	.	0dd	-di,
.	.	.	.	2.f\	pec-	.	.
.	.	.	.	4e\	.	.	.
.	.	.	.	2d\	.	.	.
2r	.	1e	mi-	2.c\	-ca-	2r	.
2C/	qui	.	.	.	.	2g/	qui
.	.	.	.	4B\	.	.	.
=77	=77	=77	=77	=77	=77	=77	=77
2D\	tol-	2d\	-se-	2A/	.	2f/	tol-
2E\	-lis	1c	-re-	2G/	-ta	2g/	-lis
2F\	pec-	.	.	2r	.	2d/	pec-
2D\	-ca-	2d\	.	2A/	mun-	2f/	-ca-
2E\	-ta	4B\	.	2G/	.	2g/	-ta
.	.	4c\	.	.	.	.	.
2F\	mun-	2A/	.	2c\	-di	2a/	mun-
=78	=78	=78	=78	=78	=78	=78	=78
2G\	-di	1G	-re	4r	.	2d/	-di
.	.	.	.	2B\	mi-	.	.
2E\	mi-	.	.	.	.	2g/	mi-
.	.	.	.	4c\	-se-	.	.
2F\	.	2r	.	2A/	-re-	2a/	.
2G\	-se-	2d\	no-	2G/	-re	2b\	-se-
2A\	-re-	2c\	.	2r	.	2cc\	-re-
2D\	.	2d\	.	2F/	no-	4b\	.
.	.	.	.	.	.	[4a/	.
=79	=79	=79	=79	=79	=79	=79	=79
2E\	.	2c\	.	4G/	.	4a/]	.
.	.	.	.	4E/	.	4g/	.
2D\	-re	1d	.	2F/	.	2f/	-re
1E	no-	.	.	1G	.	4e/	no-
.	.	.	.	.	.	4d/	.
.	.	2c\	.	.	.	1g	.
1D	.	[1dl	-bis.	1A	.	.	.
.	.	.	.	.	.	2f#i/	.
=80	=80	=80	=80	=80	=80	=80	=80
0.Gl	-bis.	0.d]	.	0.Gl	-bis.	0.gl	-bis.
!!LO:LB:i:g=z
=81||	=81||	=81||	=81||	=81||	=81||	=81||	=81||
*>B	*	*>B	*	*>B	*	*>B	*
*clefF4	*	*clefGv2	*	*clefGv2	*	*clefG2	*
*k[]	*	*k[]	*	*k[]	*	*k[]	*
*M2/1	*	*M2/1	*	*M2/1	*	*M2/1	*
*met(C|)	*	*met(C|)	*	*met(C|)	*	*met(C|)	*
!!section: Qui tollis
!!!OMD: Qui tollis
0r	.	[0g	Qui	0r	.	0g	Qui
=82	=82	=82	=82	=82	=82	=82	=82
0r	.	0g]	.	0r	.	1.b	.
.	.	.	.	.	.	4a/	.
.	.	.	.	.	.	4g/	.
=83	=83	=83	=83	=83	=83	=83	=83
0r	.	1f	tol-	0r	.	1a	.
.	.	1g	.	.	.	2g/	tol-
.	.	.	.	.	.	[2dd\	.
=84	=84	=84	=84	=84	=84	=84	=84
0r	.	0e	.	0r	.	2dd\]	.
.	.	.	.	.	.	4cc#i\	.
.	.	.	.	.	.	4b\	.
.	.	.	.	.	.	1cc#i	.
=85	=85	=85	=85	=85	=85	=85	=85
[0G	Qui	[0d	-lis	0G	Qui	0dd	-lis
=86	=86	=86	=86	=86	=86	=86	=86
0G]	.	0d]	.	1.B	.	0r	.
.	.	.	.	4A/	.	.	.
.	.	.	.	4G/	.	.	.
=87	=87	=87	=87	=87	=87	=87	=87
1F	tol-	1r	.	1A	.	0r	.
1G	.	[1g	pec-	2G/	tol-	.	.
.	.	.	.	[2d\	.	.	.
=88	=88	=88	=88	=88	=88	=88	=88
0E	.	1g]	.	2d\]	.	1r	.
.	.	.	.	4c#i\	.	.	.
.	.	.	.	4B\	.	.	.
.	.	1g	-ca-	1c#i	.	1g	pec-
=89	=89	=89	=89	=89	=89	=89	=89
0D	-lis	1.f	.	0d	-lis	1.a	-ca-
.	.	4e\	.	.	.	2b\	.
.	.	4d\	.	.	.	.	.
=90	=90	=90	=90	=90	=90	=90	=90
0r	.	1e	.	0r	.	1cc	.
.	.	2f\	-ta	.	.	2dd\	-ta
.	.	[2g\	mun-	.	.	[2ee\	mun-
=91	=91	=91	=91	=91	=91	=91	=91
0r	.	4g\]	.	0r	.	4ee\]	.
.	.	4f\	.	.	.	4dd\	.
.	.	4e\	.	.	.	1dd	.
.	.	4d\	.	.	.	.	.
.	.	1e	.	.	.	.	.
.	.	.	.	.	.	2cc#i\	.
=92	=92	=92	=92	=92	=92	=92	=92
1r	.	[0d	-di,	0r	.	[0dd	-di,
[1G	pec-	.	.	.	.	.	.
=93	=93	=93	=93	=93	=93	=93	=93
1G]	.	0d]	.	1r	.	0dd]	.
1G	-ca-	.	.	1G	pec-	.	.
=94	=94	=94	=94	=94	=94	=94	=94
1.F	.	0r	.	1.A	-ca-	0r	.
4E\	.	.	.	2B\	.	.	.
4D\	.	.	.	.	.	.	.
=95	=95	=95	=95	=95	=95	=95	=95
1E	.	0r	.	1c	.	0r	.
2F\	-ta	.	.	2d\	-ta	.	.
[2G\	mun-	.	.	[2e\	mun-	.	.
=96	=96	=96	=96	=96	=96	=96	=96
4G\]	.	0r	.	4e\]	.	0r	.
4F\	.	.	.	4d\	.	.	.
4E\	.	.	.	1d	.	.	.
4D\	.	.	.	.	.	.	.
1E	.	.	.	.	.	.	.
.	.	.	.	2c#i\	.	.	.
=97	=97	=97	=97	=97	=97	=97	=97
[0D	-di,	0r	.	0d	-di,	1.dd	su-
.	.	.	.	.	.	2cc\	.
=98	=98	=98	=98	=98	=98	=98	=98
0D]	.	1.d	su-	0r	.	1b	.
.	.	.	.	.	.	1a	-sci-
.	.	2c\	.	.	.	.	.
=99	=99	=99	=99	=99	=99	=99	=99
1.G	su-	1B	.	0r	.	1g	-pe
.	.	1A	-sci-	.	.	1r	.
2F\	.	.	.	.	.	.	.
=100	=100	=100	=100	=100	=100	=100	=100
1E	.	1G	-pe	1.g	su-	0r	.
1D	-sci-	1r	.	.	.	.	.
.	.	.	.	2f\	.	.	.
=101	=101	=101	=101	=101	=101	=101	=101
1C	-pe	0r	.	1e	.	1g	de-
[1F	de-	.	.	1d	-sci-	[1a	.
=102	=102	=102	=102	=102	=102	=102	=102
2F\]	.	1.c	de-	[0c	-pe	2a/]	.
2G\	-pre-	.	.	.	.	2b\	-pre-
2A\	-ca-	.	.	.	.	2.cc\	-ca-
2B\	-ti-	2d\	-pre-	.	.	.	.
.	.	.	.	.	.	4b\	.
=103	=103	=103	=103	=103	=103	=103	=103
1.c	-o-	2e\	-ca-	0c]	.	1.g	.
.	.	2f\	-ti-	.	.	.	.
.	.	[1g	-o-	.	.	.	.
4B\	.	.	.	.	.	2a/	-ti-
4A\	.	.	.	.	.	.	.
=104	=104	=104	=104	=104	=104	=104	=104
1G	.	2g\]	.	1.d	de-	2b\	-o-
.	.	2f\	.	.	.	2cc\	.
[1B-i	-nem	1d	-nem	.	.	1dd	-nem
.	.	.	.	2d\	-pre-	.	.
=105	=105	=105	=105	=105	=105	=105	=105
1B-]	.	1.f	nos-	1d	-ca-	1r	.
1A	nos-	.	.	1c	-ti-	1a	nos-
.	.	[2e\	.	.	.	.	.
=106	=106	=106	=106	=106	=106	=106	=106
1G	.	1e]	.	1B	-o-	2b\	.
.	.	.	.	.	.	2g/	.
1F	.	[1d	.	1A	.	1a	.
=107	=107	=107	=107	=107	=107	=107	=107
0E	.	2d\]	.	0G	-nem	2b\	.
.	.	1.c	.	.	.	2.cc\	.
.	.	.	.	.	.	4b\	.
.	.	.	.	.	.	4a/	.
.	.	.	.	.	.	4g/	.
=108	=108	=108	=108	=108	=108	=108	=108
[0Dl	-tram.	[0dl	-tram.	1.A	nos-	[0fl	-tram.
.	.	.	.	[2B-i\	.	.	.
=109	=109	=109	=109	=109	=109	=109	=109
0D_	.	0d_	.	2B-\]	.	0f_	.
.	.	.	.	2A/	.	.	.
.	.	.	.	2.B-i\	.	.	.
.	.	.	.	4A/	.	.	.
=110	=110	=110	=110	=110	=110	=110	=110
0D;]	.	0d;]	.	0A;	-tram.	0f;]	.
=111	=111	=111	=111	=111	=111	=111	=111
0E	Ad	0g	Ad	0G	Ad	0g	Ad
=112	=112	=112	=112	=112	=112	=112	=112
0F	Ma-	0f	Ma-	0c	Ma-	0a	Ma-
=113	=113	=113	=113	=113	=113	=113	=113
0G	-ri-	0d	-ri-	0B	-ri-	0b	-ri-
=114	=114	=114	=114	=114	=114	=114	=114
[0A	-e	0c	-e	0e	-e	1.cc	-e
.	.	.	.	.	.	2b\	.
=115	=115	=115	=115	=115	=115	=115	=115
1A]	.	1e	glo-	1c	glo-	2a/	.
.	.	.	.	.	.	2g/	.
1F	glo-	1f	.	1A	.	1a	glo-
=116	=116	=116	=116	=116	=116	=116	=116
1G	-ri-	0e	-ri-	1B	-ri-	1g	-ri-
1A	.	.	.	1c	.	1e	.
=117	=117	=117	=117	=117	=117	=117	=117
0D;	-am.	0d;	-am.	0A;	-am.	0f;	-am.
=118	=118	=118	=118	=118	=118	=118	=118
0d	Qui	0r	.	1r	.	0r	.
.	.	.	.	[1d	Qui	.	.
=119	=119	=119	=119	=119	=119	=119	=119
1G	se-	0d	Qui	1d]	.	0r	.
[1d	-des	.	.	1G	se-	.	.
=120	=120	=120	=120	=120	=120	=120	=120
2d\]	.	1G	se-	1.d	-des	0r	.
2c\	.	.	.	.	.	.	.
2B\	.	[1d	-des	.	.	.	.
2A\	.	.	.	2c\	.	.	.
=121	=121	=121	=121	=121	=121	=121	=121
2G\	.	1d]	.	2B\	.	0r	.
2F\	.	.	.	2A/	.	.	.
1E	ad	1c	ad	1G	ad	.	.
=122	=122	=122	=122	=122	=122	=122	=122
1D	dex-	1f	dex-	2.A/	dex-	0r	.
.	.	.	.	4B\	.	.	.
1A	-te-	2e\	-te-	1c	-te-	.	.
.	.	[2f\	-ram	.	.	.	.
=123	=123	=123	=123	=123	=123	=123	=123
1B-i	-ram	2f\]	.	1d	-ram	0r	.
.	.	4e\	.	.	.	.	.
.	.	4d\	.	.	.	.	.
1A	pa-	2e\	.	2c\	.	.	.
.	.	[2f\	pa-	[2c\	pa-	.	.
=124	=124	=124	=124	=124	=124	=124	=124
2F\	.	4f\]	.	2c\]	.	0r	.
.	.	4e\	.	.	.	.	.
2G\	.	1d	.	4B\	.	.	.
.	.	.	.	4A/	.	.	.
1E	.	.	.	1G	.	.	.
.	.	2c#i\	.	.	.	.	.
=125	=125	=125	=125	=125	=125	=125	=125
1D	-tris,	0d	-tris,	1A	-tris,	0r	.
[1G	mi-	.	.	[1B	mi-	.	.
=126	=126	=126	=126	=126	=126	=126	=126
2G\]	.	1r	.	2B\]	.	0r	.
2G\	-se-	.	.	2B\	-se-	.	.
1G	-re-	1d	mi-	1B	-re-	.	.
=127	=127	=127	=127	=127	=127	=127	=127
1G	-re	1e	-se-	1B	-re	0r	.
2A\	no-	1f	.	2c\	no-	.	.
[2B-i\	.	.	.	[2d\	.	.	.
=128	=128	=128	=128	=128	=128	=128	=128
2B-\]	.	1g	-re-	2d\]	.	0r	.
4A\	.	.	.	4c\	.	.	.
4G\	.	.	.	4B\	.	.	.
1A	.	2f\	.	2c\	.	.	.
.	.	[2e\	.	2A/	.	.	.
=129	=129	=129	=129	=129	=129	=129	=129
2.G\	.	2e\]	.	2B\	.	0r	.
.	.	2d\	-re	2G/	.	.	.
4F\	.	.	.	.	.	.	.
2D\	.	2f\	no-	2A/	.	.	.
2C/	.	[2e\	.	[2c\	.	.	.
=130	=130	=130	=130	=130	=130	=130	=130
2F\	.	2e\]	.	2c\]	.	0r	.
2G\	.	1d	.	4B\	.	.	.
.	.	.	.	4A/	.	.	.
1E	.	.	.	1G	.	.	.
.	.	2c#i\	.	.	.	.	.
=131	=131	=131	=131	=131	=131	=131	=131
0D	-bis.	0d	-bis.	0A	-bis.	1r	.
.	.	.	.	.	.	[1dd	Quo-
=132	=132	=132	=132	=132	=132	=132	=132
0r	.	0r	.	1r	.	1dd]	.
.	.	.	.	1A	Quo-	1cc	-ni-
=133	=133	=133	=133	=133	=133	=133	=133
0r	.	0r	.	1G	-ni-	1b	-am
.	.	.	.	1A	-am	1cc	.
=134	=134	=134	=134	=134	=134	=134	=134
0r	.	0r	.	2r	.	1a	tu
.	.	.	.	2A/	tu	.	.
.	.	.	.	1B-	.	1g	.
=135	=135	=135	=135	=135	=135	=135	=135
0r	.	0r	.	1A	so-	1cc	so-
.	.	.	.	1B-i	-lus-	1dd	-lus
=136	=136	=136	=136	=136	=136	=136	=136
0r	.	0r	.	2A/	sanc-	1.ee	sanc-
.	.	.	.	2a\	.	.	.
.	.	.	.	2g\	.	.	.
.	.	.	.	2a\	.	[2ff\	.
=137	=137	=137	=137	=137	=137	=137	=137
0r	.	0r	.	2f\	.	4ff\]	.
.	.	.	.	.	.	8ee\L	.
.	.	.	.	.	.	8dd\J	.
.	.	.	.	2g\	.	1dd	.
.	.	.	.	1e	.	.	.
.	.	.	.	.	.	2cc#i\	.
=138	=138	=138	=138	=138	=138	=138	=138
0r	.	0r	.	0d;	-tus.	0dd;	-tus.
=139	=139	=139	=139	=139	=139	=139	=139
0B-	Ma-	0G	Ma-	0d	Ma-	0dd	Ma-
=140	=140	=140	=140	=140	=140	=140	=140
0A	-ri-	0c	-ri-	0e	-ri-	0cc	-ri-
=141	=141	=141	=141	=141	=141	=141	=141
0G	-am	0d	-am	0g	-am	0b	-am
=142	=142	=142	=142	=142	=142	=142	=142
0F	sanc-	0f	sanc-	0c	sanc-	0a	sanc-
=143	=143	=143	=143	=143	=143	=143	=143
0G	-ti-	1e	-ti-	0B	-ti-	0g	-ti-
.	.	1d	.	.	.	.	.
=144	=144	=144	=144	=144	=144	=144	=144
0E	-fi-	0c#i	-fi-	0G	-fi-	0g	-fi-
=145	=145	=145	=145	=145	=145	=145	=145
0D;	-cans.	0d;	-cans.	0A;	-cans.	0f;	-cans.
=146	=146	=146	=146	=146	=146	=146	=146
1.G	Tu	1r	.	0r	.	0r	.
.	.	[1g	Tu	.	.	.	.
2F\	.	.	.	.	.	.	.
=147	=147	=147	=147	=147	=147	=147	=147
1E	.	1g]	.	0r	.	0r	.
2D\	so-	1f	so-	.	.	.	.
[2A\	-lus	.	.	.	.	.	.
=148	=148	=148	=148	=148	=148	=148	=148
4A\]	.	2.e\	-lus	0r	.	0r	.
4G\	.	.	.	.	.	.	.
4A\	.	.	.	.	.	.	.
4B\	.	4d\	.	.	.	.	.
2.c\	do-	2e\	.	.	.	.	.
.	.	[2c\	do-	.	.	.	.
4B\	.	.	.	.	.	.	.
=149	=149	=149	=149	=149	=149	=149	=149
4A\	.	4c\]	.	0r	.	0r	.
4G\	.	4B\	.	.	.	.	.
2.A\	.	4c\	.	.	.	.	.
.	.	4d\	.	.	.	.	.
.	.	2e\	.	.	.	.	.
4G\	.	.	.	.	.	.	.
4F\	.	[2f\	-mi-	.	.	.	.
4E\	.	.	.	.	.	.	.
=150	=150	=150	=150	=150	=150	=150	=150
2F\	.	4f\]	.	0r	.	0r	.
.	.	4e\	.	.	.	.	.
2G\	.	1d	.	.	.	.	.
1E	-mi-	.	.	.	.	.	.
.	.	2c#i\	.	.	.	.	.
=151	=151	=151	=151	=151	=151	=151	=151
0D;	-nus.	0d;	-nus.	0r	.	0r	.
=152	=152	=152	=152	=152	=152	=152	=152
0E	Ma-	0g	Ma-	0G	Ma-	0g	Ma-
=153	=153	=153	=153	=153	=153	=153	=153
0D	-ri-	0f	-ri-	0d	-ri-	0a	-ri-
=154	=154	=154	=154	=154	=154	=154	=154
0A	-am	0e	-am	0c	-am	0cc	-am
=155	=155	=155	=155	=155	=155	=155	=155
0A	gu-	0c	gu-	0e	gu-	0cc	gu-
=156	=156	=156	=156	=156	=156	=156	=156
0G	-ber-	0d	-ber-	0g	-ber-	0b	-ber-
=157	=157	=157	=157	=157	=157	=157	=157
0D;	-nans.	0d;	-nans.	0f;	-nans.	0a;	-nans.
=158	=158	=158	=158	=158	=158	=158	=158
0r	.	0r	.	0r	.	1.g	Tu
.	.	.	.	.	.	2f/	.
=159	=159	=159	=159	=159	=159	=159	=159
0r	.	0r	.	1.g	Tu	1g	.
.	.	.	.	.	.	1a	so-
.	.	.	.	2f\	.	.	.
=160	=160	=160	=160	=160	=160	=160	=160
0r	.	0r	.	1g	.	1g	-lus
.	.	.	.	1a	so-	1d	al-
=161	=161	=161	=161	=161	=161	=161	=161
0r	.	0r	.	1g	-lus	1e	-tis-
.	.	.	.	1d	al-	1f	-si-
=162	=162	=162	=162	=162	=162	=162	=162
0r	.	0r	.	1e	-tis-	1g	-mus,
.	.	.	.	1f	-si-	2r	.
.	.	.	.	.	.	2a/	al-
=163	=163	=163	=163	=163	=163	=163	=163
0r	.	0r	.	1g	-mus,	2b\	-tis-
.	.	.	.	.	.	2cc\	.
.	.	.	.	2r	.	1dd	.
.	.	.	.	2d\	al-	.	.
=164	=164	=164	=164	=164	=164	=164	=164
0r	.	0r	.	2e\	-tis-	1cc	.
.	.	.	.	2f\	.	.	.
.	.	.	.	1g	.	2b\	.
.	.	.	.	.	.	[2ee\	.
=165	=165	=165	=165	=165	=165	=165	=165
0r	.	0r	.	2f\	.	4ee\]	.
.	.	.	.	.	.	4dd\	.
.	.	.	.	2g\	.	1dd	.
.	.	.	.	1e	-si-	.	.
.	.	.	.	.	.	2cc#i\	-si-
=166	=166	=166	=166	=166	=166	=166	=166
0r	.	0r	.	0d;	-mus.	0dd;	-mus.
=167	=167	=167	=167	=167	=167	=167	=167
0G	Ma-	0g	Ma-	0d	Ma-	0b	Ma-
=168	=168	=168	=168	=168	=168	=168	=168
0F	-ri-	0a	-ri-	0f	-ri-	0cc	-ri-
=169	=169	=169	=169	=169	=169	=169	=169
0G	-am	0g	-am	0d	-am	0b	-am
=170	=170	=170	=170	=170	=170	=170	=170
1r	.	1f	co-	1d	co-	1a	co-
[1C	co-	[1g	.	[1c	.	[1ee	.
=171	=171	=171	=171	=171	=171	=171	=171
1C]	.	1g]	.	2c\]	.	2ee\]	.
.	.	.	.	2B\	.	2dd\	.
1D	.	1f	.	[1A	.	[1dd	.
=172	=172	=172	=172	=172	=172	=172	=172
0A	-ro	0e	-ro	1A]	.	1dd]	.
.	.	.	.	1A	-ro	1cc#i	-ro
=173	=173	=173	=173	=173	=173	=173	=173
0D	-nans.	0d	-nans.	0A	-nans.	0dd	-nans.
=174	=174	=174	=174	=174	=174	=174	=174
0F	Je-	0c	Je-	0A	Je-	0a	Je-
=175	=175	=175	=175	=175	=175	=175	=175
0F	-su	0f	-su	0c	-su	0a	-su
=176	=176	=176	=176	=176	=176	=176	=176
0C	Chri-	0e	Chri-	0c	Chri-	0g	Chri-
=177	=177	=177	=177	=177	=177	=177	=177
0Dl	-ste.	0dl	-ste.	0Al	-ste.	0fl	-ste.
!!LO:LB:i:g=z
=178||	=178||	=178||	=178||	=178||	=178||	=178||	=178||
*>C	*	*>C	*	*>C	*	*>C	*
*clefF4	*	*clefGv2	*	*clefGv2	*	*clefG2	*
*k[]	*	*k[]	*	*k[]	*	*k[]	*
*M3/1	*	*M3/1	*	*M3/1	*	*M3/1	*
*met(3)	*	*met(3)	*	*met(3)	*	*met(3)	*
!!!OMD: Cum Sancto
!!section: Cum Sancto
0.r	.	0.r	.	1.d	Cum	1.dd	Cum
.	.	.	.	2e\	.	2cc\	.
.	.	.	.	1f	.	1dd	.
=179	=179	=179	=179	=179	=179	=179	=179
0.r	.	0.r	.	1g	.	1ee	.
.	.	.	.	1.a	sanc-	0cc	sanc-
.	.	.	.	2g\	.	.	.
=180	=180	=180	=180	=180	=180	=180	=180
0.r	.	1.d	Cum	2f#i\	.	1b	.
.	.	.	.	2e\	.	.	.
.	.	.	.	1.f#i	.	0a	.
.	.	2c\	.	.	.	.	.
.	.	1d	.	.	.	.	.
.	.	.	.	2e\	.	.	.
=181	=181	=181	=181	=181	=181	=181	=181
1C	Cum	1e	.	0g	-to...	1g	-to
1E	.	0c	sanc-	.	.	1r	.
1F	.	.	.	1r	.	1r	.
=182	=182	=182	=182	=182	=182	=182	=182
1.G	sanc-	1B	.	0.r	.	0.r	.
.	.	0A	.	.	.	.	.
4F#i\	.	.	.	.	.	.	.
4E\	.	.	.	.	.	.	.
1F#i	.	.	.	.	.	.	.
=183	=183	=183	=183	=183	=183	=183	=183
0G	-to..	1G	-to	0.r	.	1.g	spi-
.	.	1B	spi-	.	.	.	.
.	.	.	.	.	.	2f/	.
1r	.	1c	.	.	.	1e	.
=184	=184	=184	=184	=184	=184	=184	=184
0.r	.	0d	.	1r	.	2d/	.
.	.	.	.	.	.	1f	.
.	.	.	.	1r	.	.	.
.	.	.	.	.	.	2g/	.
.	.	1c#i	-ri-	1g	...in	1e	-ri-
=185	=185	=185	=185	=185	=185	=185	=185
0D	...in	0.d	-tu,	1.f	glo-	0d	-tu,
.	.	.	.	2e\	.	.	.
[1G	.	.	.	2d\	.	1d	in
.	.	.	.	2c\	.	.	.
=186	=186	=186	=186	=186	=186	=186	=186
1G]	.	0.r	.	2B\	.	0g	glo-
.	.	.	.	2G/	.	.	.
1G	glo-	.	.	2.B\	.	.	.
.	.	.	.	4c\	.	.	.
1F#i	-ri-	.	.	1A	-ri-	1a	-ri-
=187	=187	=187	=187	=187	=187	=187	=187
1.G	-a	0d	in	0.G	-a	0b	-a
2A\	.	.	.	.	.	.	.
1B	.	[1g	.	.	.	1b	de-
=188	=188	=188	=188	=188	=188	=188	=188
1c	de-	1g]	.	1r	.	1g	.
0A	-i	1g	glo-	1r	.	0cc	-i
.	.	1f	-ri-	1c	de-	.	.
=189	=189	=189	=189	=189	=189	=189	=189
1G	pa-	0g	-a	1.d	-i	1b	pa-
1.B-i	.	.	.	.	.	1.dd	.
.	.	.	.	2e\	.	.	.
.	.	1d	de-	[1f	pa-	.	.
2A\	.	.	.	.	.	2cc\	.
=190	=190	=190	=190	=190	=190	=190	=190
1.F	.	0f	-i	2f\]	.	1.a	.
.	.	.	.	2e\	.	.	.
.	.	.	.	0c	.	.	.
2G\	.	.	.	.	.	2b\	.
1A	.	1e	pa-	.	.	1cc	.
=191	=191	=191	=191	=191	=191	=191	=191
1B-i	.	1d	.	1f	.	1dd	.
1A	.	1c	.	0a	.	0ee	.
[1B-i	.	[1d	.	.	.	.	.
=192	=192	=192	=192	=192	=192	=192	=192
1B-]	.	1d]	.	1g	.	0dd	.
0A	.	0e	.	0a	.	.	.
.	.	.	.	.	.	1cc#i	.
=193	=193	=193	=193	=193	=193	=193	=193
*M2/1	*	*M2/1	*	*M2/1	*	*M2/1	*
*met(C|)	*	*met(C|)	*	*met(C|)	*	*met(C|)	*
[0D	-tris.	[0d	-tris.	0f	-tris.	0dd	-tris.
=194	=194	=194	=194	=194	=194	=194	=194
0D]	.	0d]	.	1r	.	1r	.
.	.	.	.	1d	A-	1dd	A-
=195	=195	=195	=195	=195	=195	=195	=195
0r	.	0r	.	1e	.	2b\	.
.	.	.	.	.	.	1cc	.
.	.	.	.	1f	.	.	.
.	.	.	.	.	.	4b\	.
.	.	.	.	.	.	4a/	.
=196	=196	=196	=196	=196	=196	=196	=196
1r	.	1r	.	2g\	.	1g	.
.	.	.	.	2G/	.	.	.
1D	A-	1d	A-	1A	.	1f	.
=197	=197	=197	=197	=197	=197	=197	=197
1E	.	2B\	.	1G	-men,	1g	-men,
.	.	1c	.	.	.	.	.
1F	.	.	.	2r	.	1a	.
.	.	2A/	.	2c\	a-	.	.
=198	=198	=198	=198	=198	=198	=198	=198
2G\	.	2G/	.	2B\	.	2r	.
2A\	.	2F/	.	1c	.	1a	a-
2.F\	.	2.A/	.	.	.	.	.
.	.	.	.	2d\	.	2f/	.
4E\	.	4B\	.	.	.	.	.
=199	=199	=199	=199	=199	=199	=199	=199
2C/	.	2c\	.	1.e	.	2e/	.
2.E\	.	2G/	.	.	.	1.g	.
.	.	2.B\	.	.	.	.	.
4F\	.	.	.	.	.	.	.
2G\	.	.	.	2d\	.	.	.
.	.	4c\	.	.	.	.	.
=200	=200	=200	=200	=200	=200	=200	=200
2D\	.	2d\	.	1.f	.	2f/	.
2.F\	.	2A/	.	.	.	1.a	.
.	.	2.c\	.	.	.	.	.
4G\	.	.	.	.	.	.	.
2A\	.	.	.	2e\	.	.	.
.	.	4d\	.	.	.	.	.
=201	=201	=201	=201	=201	=201	=201	=201
2E\	.	2e\	.	1.g	.	2g/	.
2.G\	.	2B\	.	.	.	2.b\	.
.	.	2.d\	.	.	.	.	.
4A\	.	.	.	.	.	4cc\	.
2B-i\	.	.	.	[2f\	.	2dd\	.
.	.	4e\	.	.	.	.	.
=202	=202	=202	=202	=202	=202	=202	=202
2F\	.	2f\	.	2f\]	.	2a/	.
2.A\	.	2c\	.	2e\	.	1.cc	.
.	.	2.e\	.	1c	.	.	.
4Bni\	.	.	.	.	.	.	.
2c\	.	.	.	.	.	.	.
.	.	4f\	.	.	.	.	.
=203	=203	=203	=203	=203	=203	=203	=203
2G\	.	2g\	.	1.d	.	2b\	.
2.B-i\	.	2d\	.	.	.	2.dd\	.
.	.	2.f\	.	.	.	.	.
4A\	.	.	.	.	.	4cc\	.
2F\	.	.	.	[2f\	.	4a/	.
.	.	4e\	.	.	.	4b\	.
=204	=204	=204	=204	=204	=204	=204	=204
2.A\	.	2c\	.	4f\]	.	2.cc\	.
.	.	.	.	4e\	.	.	.
.	.	2.e\	.	4c\	.	.	.
4G\	.	.	.	4d\	.	4b\	.
2E\	.	.	.	2.e\	.	4g/	.
.	.	4d\	.	.	.	4a/	.
[2G\	.	2B\	.	.	.	[2b\	.
.	.	.	.	4d\	.	.	.
=205	=205	=205	=205	=205	=205	=205	=205
4G\]	.	2.d\	.	4B\	.	4b\]	.
4F\	.	.	.	4c\	.	4a/	.
2D\	.	.	.	2.d\	.	4f/	.
.	.	4c\	.	.	.	4g/	.
2.F\	.	2A/	.	.	.	2.a/	.
.	.	.	.	4c\	.	.	.
.	.	[2c\	.	4A/	.	.	.
4E\	.	.	.	4B\	.	4g/	.
=206	=206	=206	=206	=206	=206	=206	=206
2C/	.	4c\]	.	1c	.	4e/	.
.	.	4B\	.	.	.	4d/	.
2E\	.	2G/	.	.	.	1g	.
1D	.	1A	.	[1d	.	.	.
.	.	.	.	.	.	2f#i/	.
=207	=207	=207	=207	=207	=207	=207	=207
[0Gl	-men.	[0Gl	-men.	2d\]	.	[0gl	-men.
.	.	.	.	1.e	.	.	.
=208	=208	=208	=208	=208	=208	=208	=208
0G]	.	0G]	.	0dl	-men.	0g]	.
==	==	==	==	==	==	==	==
*-	*-	*-	*-	*-	*-	*-	*-
!!!RDF**kern: l=long note in original notation
!!!RDF**kern: i=editorial accidental
!!!ENC: Will Watson 27/05/2011
!!!END: 2011/05/27/
!!!EED: Jesse Rodin
!!!EEV: 2013/10/25/
!!attribution-level@Jos: 2 (provisionally attributable [parentheses checkmark])
!!!ONB: Translated from MusicXML and edited on 2011/08/18/ by Craig Sapp
!!muse2ps: C^@{COM}\n@{SCT}^i2I150v90,90,90,120c150z18l2700t130
